!!!COM:	la Rue, Pierre de
!!!CDT:	~1452///-1518/11/20
!!!OPR:	Missa Sine nomine I
!!!ONM:	1
!!!OTL:	Kyrie
!!!AGN:	Mass; Kyrie
!!!SCT:	Rue1028a
!!!SCA:	Rue1028a
!!!voices-OPR:	4
!!!voices:	4
**kern	**kern	**kern	**kern
*staff4	*staff3	*staff2	*staff1
*Ivox	*Ivox	*Ivox	*Ivox
*I"Bassus	*I"Tenor	*I"Contra	*I"Discantus
*I'B	*I'T	*I'C	*I'D
*>[A,B,C]	*>[A,B,C]	*>[A,B,C]	*>[A,B,C]
*>A	*>A	*>A	*>A
*clefF4	*clefGv2	*clefGv2	*clefG2
*k[b-]	*k[b-]	*k[b-]	*k[b-]
*M2/1	*M2/1	*M2/1	*M2/1
*met(C|)	*met(C|)	*met(C|)	*met(C|)
!!section: Kyrie I
!!!OMD: Kyrie I
=1-	=1-	=1-	=1-
0r	0r	1.G	0r
.	.	2G/	.
=2	=2	=2	=2
0r	0r	1B-	1.g
.	.	1c	.
.	.	.	2g/
=3	=3	=3	=3
0r	0r	1d	1b-
.	.	1e-i	1cc
=4	=4	=4	=4
1.G	1.G	2d\	0dd
.	.	1g	.
2G\	2G/	4f\	.
.	.	4e\	.
=5	=5	=5	=5
1G	1B-	1d	1r
1E	1c	1e	1g
=6	=6	=6	=6
0D	0d	0f	2f/
.	.	.	1a
.	.	.	2b-\
=7	=7	=7	=7
1C	1.e-i	0g	1.cc
2C/	.	.	.
[2G\	2d\	.	2b-\
=8	=8	=8	=8
2G\]	2d\	0r	2b-\
2A\	2c\	.	2a/
2G\	1d	.	2b-\
2F\	.	.	2a/
=9	=9	=9	=9
2F\	1.c	1r	2a/
2E\	.	.	2g/
2F\	.	2r	2a/
2G\	2B-\	2g\	2d/
=10	=10	=10	=10
1D	2B-\	2g\	2r
.	2A/	2f\	2d/
2r	1B-	2g\	2.d/
2D\	.	2f\	.
.	.	.	4e/
=11	=11	=11	=11
2.D\	1.A	2.f\	4f/
.	.	.	4g/
.	.	.	2.a/
4C/	.	4e\	.
2D\	.	2f\	.
.	.	.	4f/
2BB-/	2G/	2d\	[2b-\
=12	=12	=12	=12
2C/	2G/	2e\	2b-\]
2D\	2F/	2f\	2a/
2GG/	1G	[1d	2b-\
[2B-\	.	.	[2dd\
=13	=13	=13	=13
2B-\]	0r	2d\]	2dd\]
2A\	.	2e\	2cc\
2A\	.	2f\	2cc\
2G\	.	2g\	2b-\
=14	=14	=14	=14
2A\	2r	2f\	2cc\
1G	1d	1g	1b-
2A\	2c\	2e\	2a/
=15	=15	=15	=15
2F\	2c\	2f\	2a/
2G\	2B-\	2e\	2g/
2F\	2c\	2f\	2a/
[2BB-/	[2B-\	[2d\	[2dd\
=16	=16	=16	=16
2BB-/]	2B-\]	2d\]	2dd\]
2C/	2A/	2e\	2cc\
2AA/	2A/	2c\	2cc\
2BB-/	2G/	2d\	2b-\
=17	=17	=17	=17
2AA/	2A/	2c\	2cc\
2F\	1d	2f\	2a/
2G\	.	2B-\	2b-\
2A\	2c\	[2f\	[2a/
=18	=18	=18	=18
2F\	2c\	4f\]	2a/]
.	.	4e\	.
2G\	2B-\	2.d\	2g/
1D	1A	.	2g/
.	.	4c\	.
.	.	2d\	2f#i/
=19	=19	=19	=19
0GGl	0Gl	0B-l	0gl
!!LO:LB:i:g=z
=20||	=20||	=20||	=20||
*>B	*>B	*>B	*>B
*clefF4	*clefGv2	*clefGv2	*clefG2
*k[b-]	*k[b-]	*k[b-]	*k[b-]
*M2/1	*M2/1	*M2/1	*M2/1
*met(C|)	*met(C|)	*met(C|)	*met(C|)
!!section: Christe
!!!OMD: Christe
1r	0r	1g	0r
1G	.	[1g	.
=21	=21	=21	=21
1.G	1r	2g\]	1dd
.	.	4f\	.
.	.	4e\	.
.	1d	[1d	[1dd
4F\	.	.	.
4E\	.	.	.
=22	=22	=22	=22
0D	1.d	1d]	2dd\]
.	.	.	4cc\
.	.	.	4b-\
.	.	1d	[1a
.	4c\	.	.
.	4B-\	.	.
=23	=23	=23	=23
1D	0A	1.f	1a]
[1F	.	.	1a
.	.	4e\	.
.	.	4d\	.
=24	=24	=24	=24
2F\]	1A	2.c\	1.cc
4E\	.	.	.
4D\	.	4d\	.
1C	[1c	4e\	.
.	.	4f\	.
.	.	2e\	2b-\
=25	=25	=25	=25
1F	1c]	2f\	1a
.	.	2F/	.
1E	1c	1G	1g
=26	=26	=26	=26
0D	[0d	2A/	1f
.	.	4B-\	.
.	.	4A/	.
.	.	4B-\	2r
.	.	4A/	.
.	.	[2B-\	2f/
=27	=27	=27	=27
2BB-/	0d]	4B-\]	1b-
.	.	4G/	.
2GG/	.	1g	.
1D	.	.	1a
.	.	2f#i\	.
=28	=28	=28	=28
1GG	0r	1.g	2g/
.	.	.	1b-
1r	.	.	.
.	.	2e\	2cc\
=29	=29	=29	=29
0r	0r	2d\	2dd\
.	.	2.g\	2.ee\
.	.	4f\	4dd\
.	.	4e\	[2dd\
.	.	4d\	.
=30	=30	=30	=30
1r	1r	1e	2dd\]
.	.	.	2cc#i\
[1G	2G/	[1d	1dd
.	[2B-\	.	.
=31	=31	=31	=31
2G\]	2B-\]	2d\]	0r
2E\	2c\	2G/	.
2F\	2d\	2A/	.
[2G\	[2e\	[2B-\	.
=32	=32	=32	=32
4G\]	4e\]	4B-\]	0g
4F\	4d\	4A/	.
4E\	1d	4G/	.
4D\	.	4F/	.
1E	.	1G	.
.	2c#i\	.	.
=33	=33	=33	=33
0D	0d	1A	0f
.	.	[1d	.
=34	=34	=34	=34
0G	0r	1d]	0b-
.	.	1d	.
=35	=35	=35	=35
0C	0G	0e	0cc
=36	=36	=36	=36
0D	0F	1f	0a
.	.	1d	.
=37	=37	=37	=37
0E-	0B-	1r	[0g
.	.	[1G	.
=38	=38	=38	=38
0C	0c	1G]	0g]
.	.	1G	.
=39	=39	=39	=39
0D	0A	[0d	0f
=40	=40	=40	=40
[0GG	[0G	0d]	[0b-
=41	=41	=41	=41
0GG]	0G]	0d	0b-]
=42	=42	=42	=42
0D	0F	[0f	0a
=43	=43	=43	=43
[0BB-	[0B-	0f]	[0dd
=44	=44	=44	=44
0BB-]	0B-]	[0f	0dd]
=45	=45	=45	=45
0F	0A	0f]	0cc
=46	=46	=46	=46
0G	[0d	0B-	0b-
=47	=47	=47	=47
0D	0d]	[0f	[0a
=48	=48	=48	=48
0F	0c	0f]	0a]
=49	=49	=49	=49
0G	0B-	0d	0g
=50	=50	=50	=50
[0Dl	1.A	1.d	1.a
.	[2d\	4c\	2f/
.	.	4B-\	.
=51	=51	=51	=51
0D_	2d\]	1A	[0fl
.	2c\	.	.
.	1B-	1d	.
=52	=52	=52	=52
0D]	0Al	0dl	0f]
!!LO:LB:i:g=z
=53||	=53||	=53||	=53||
*>C	*>C	*>C	*>C
*clefF4	*clefGv2	*clefGv2	*clefG2
*k[b-]	*k[b-]	*k[b-]	*k[b-]
*M2/1	*M2/1	*M2/1	*M2/1
*met(C|)	*met(C|)	*met(C|)	*met(C|)
!!section: Kyrie II
!!!OMD: Kyrie II
2.D\	0A	1r	0r
4E\	.	.	.
2F\	.	2.d\	.
[2D\	.	.	.
.	.	4e\	.
=54	=54	=54	=54
2D\]	0d	2f\	2r
1G	.	1d	2.g/
.	.	.	4a/
[2G\	.	[2g\	2b-\
=55	=55	=55	=55
2G\]	1e	2g\]	2g/
2C/	.	2g\	1cc
1G	1d	1g	.
.	.	.	2bni\
=56	=56	=56	=56
2r	0c	2.e\	1cc
2.C/	.	.	.
.	.	4f\	.
.	.	2.g\	1cc
4D\	.	.	.
2E\	.	.	.
.	.	4f\	.
=57	=57	=57	=57
2C/	2r	4e\	0r
.	.	4d\	.
1F	2.A/	2.c\	.
.	4B-\	4d\	.
2E\	2c\	2e\	.
=58	=58	=58	=58
2F\	2A/	2c\	2r
2.D\	1d	2d\	2.f/
.	.	1A	.
4E\	.	.	4g/
2F\	2c\	.	2a/
=59	=59	=59	=59
2D\	0d	0r	2f/
1G	.	.	1b-
2F\	.	.	2a/
=60	=60	=60	=60
2G\	2r	[0B-	1b-
2GG/	2.D/	.	.
[1BB-	.	.	[1dd
.	4E/	.	.
.	2F/	.	.
=61	=61	=61	=61
2BB-/]	2D/	1B-]	1dd]
4AA/	1G	.	.
4GG/	.	.	.
1AA	.	2.c\	1cc
.	2F#i/	.	.
.	.	4d\	.
=62	=62	=62	=62
0GG	1G	2e-i\	2.b-\
.	.	1d	.
.	.	.	4a/
.	[1d	.	4g/
.	.	.	4f/
.	.	4c\	2g/
.	.	4B-\	.
=63	=63	=63	=63
1BB-	1d]	2d\	2f/
.	.	2.f\	1b-
1F	1c	.	.
.	.	4e\	.
.	.	2c\	2a/
=64	=64	=64	=64
1BB-	1.B-	1d	2b-\
.	.	.	2f/
2E-\	.	2G/	2g/
2D\	4A/	[2A/	[2f/
.	4G/	.	.
=65	=65	=65	=65
1C	1A	4A/]	4f/]
.	.	4G/	4e/
.	.	2E/	2c/
2BB-/	[1B-	2F/	2d/
2GG/	.	2G/	[2g/
=66	=66	=66	=66
1G	2B-\]	2.B-\	4g/]
.	.	.	4a/
.	2G/	.	2b-\
.	.	8c\L	.
.	.	8d\J	.
2r	[1c	2e-i\	2g/
[2F\	.	2c\	[2a/
=67	=67	=67	=67
4F\]	2c\]	1f	4a/]
4G\	.	.	4b-\
2A\	2A/	.	2cc\
2B-\	[1d	2f\	2f/
[2G\	.	[2g\	[2b-\
=68	=68	=68	=68
4G\]	2d\]	2g\]	4b-\]
4F\	.	.	4cc\
2D\	2B-\	2f\	2dd\
1C	1c	2.e\	2g/
.	.	.	[2a/
.	.	4d\	.
=69	=69	=69	=69
1C	1e-i	1c	4a/]
.	.	.	4b-\
.	.	.	2cc\
2D\	1d	2r	2f/
[2G\	.	[2d\	[2b-\
=70	=70	=70	=70
4G\]	2r	2d\]	2b-\]
4F\	.	.	.
2G\	2d\	1g	4a/
.	.	.	4g/
2C/	2e-i\	.	2cc\
[2F\	4d\	[2f\	4b-\
.	[4c\	.	[4a/
=71	=71	=71	=71
4F\]	4c\]	4f\]	4a/]
4G\	4B-\	4e\	4g/
2E\	4A/	2c\	1g
.	4G/	.	.
1D	1A	1d	.
.	.	.	2f#i/
=72	=72	=72	=72
0GGl	0Gl	0dl	0gl
==	==	==	==
*-	*-	*-	*-
!!!RDF**kern: l=long note in original notation
!!!RDF**kern: i=editorial accidental
!!!ENC:	Chris Gage 06-10-2013
!!!END:	2013/08/04/
!!!EED:	Jesse Rodin
!!!EEV:	2013/08/05/
!!!ONB:	Translated from MusicXML and edited on 2013/08/05/ by Craig Sapp
!!muse2ps: T^@{OPR}^u^@{ONM}{. }@{OTL}^C^@{COM}^i2I150v85,85,85,150Q16
